X: 48
T:Cherish The Ladies
% Nottingham Music Database
S:Trad, arr Phil Rowe
M:6/8
K:D
B/2c/2|"D"dFF AGF|DFA AFA|"Em"BEE GEE|"G"BdB "A7"AFA|
"D"dFF AGF|"D"DFA AFA|"G"Bcd "A7"efg|"D"fdd d2::
B/2c/2|"D"dfd "A"cec|"Bm"BdB "D"AGF|"Em"BEE GEE|"G"BdB "A7"AFA|
"D"dfd "A"cec|"Bm"BdB "D"AFA|"G"Bcd "A7"efg|"D"fdd d2:|


